brandFactory_export/2.Regular/Kit_2Regular.svg

<?xml version="1.0" encoding="UTF-8"?>
<svg width="24px" height="24px" viewBox="0 0 24 24" version="1.1" xmlns="http://www.w3.org/2000/svg" xmlns:xlink="http://www.w3.org/1999/xlink">
    <title>2.Regular/Kit_2Regular</title>
    <g id="Symbols" stroke="none" stroke-width="1" fill="none" fill-rule="evenodd">
        <g id="2.Regular/Kit_2Regular" fill="#5CB615" fill-rule="nonzero">
            <path d="M22.1478992,20.9579832 L22.1478992,7.17647059 C22.1478992,7.02521008 22.0268908,6.90420168 21.8756303,6.90420168 L1.74789916,6.90420168 C1.59663866,6.90420168 1.47563025,7.02521008 1.47563025,7.17647059 L1.47563025,20.9579832 C1.47563025,21.1058824 1.59663866,21.2269591 1.74789916,21.2269591 L21.8722689,21.2269591 C22.0235294,21.2302521 22.1445378,21.1092437 22.1478992,20.9579832 L22.1478992,20.9579832 Z M7.6,3.53613445 L7.6,5.45210084 L16.0268908,5.45210084 L16.0268908,3.53613445 C15.9428571,3.49243697 15.8487395,3.46890756 15.7546218,3.47226891 L7.87226891,3.47226891 C7.77815126,3.46890756 7.68403361,3.48907563 7.6,3.53613445 L7.6,3.53613445 Z M21.8756303,5.45210084 C22.8403361,5.45210084 23.6235294,6.22521008 23.6235294,7.17983193 L23.6235294,20.9613445 C23.6235294,21.912605 22.8403361,22.6857143 21.8756303,22.6857143 L1.74789916,22.6857143 C0.783193277,22.6857143 0,21.912605 0,20.9613445 L0,7.17647059 C0,6.22521008 0.783193277,5.4487395 1.74789916,5.4487395 L6.1210084,5.4487395 L6.1210084,3.45546218 C6.1210084,2.6487395 6.88739496,2.01344538 7.86890756,2.01344538 L15.7478992,2.01344538 C16.7294118,2.01344538 17.4991597,2.6487395 17.4991597,3.45546218 L17.4991597,5.45210084 L21.8756303,5.45210084 Z M16.0134454,14.8134454 L16.0134454,13.3176471 L13.307563,13.3176471 C12.9042017,13.3210084 12.5747899,12.994958 12.5680672,12.5915966 L12.5680672,9.92268908 L11.0487395,9.92268908 L11.0487395,12.5915966 C11.0487395,12.9915966 10.7193277,13.3210084 10.312605,13.3210084 L7.60672269,13.3243697 L7.60672269,14.8201681 L10.312605,14.8168067 C10.7226891,14.8168067 11.0521008,15.1428571 11.0521008,15.5428571 L11.0554622,18.2117647 L12.5747899,18.2151261 L12.5714286,15.5462185 C12.5714286,15.3546218 12.6487395,15.1663866 12.7865546,15.0319328 C12.9243697,14.8941176 13.112605,14.8168067 13.307563,14.8168067 L16.0134454,14.8134454 Z M16.2319328,11.8621849 C16.9008403,11.8621849 17.492437,12.3932773 17.492437,13.0016807 L17.492437,15.1361345 C17.492437,15.7411765 16.9008403,16.2756303 16.2319328,16.2756303 L14.0504202,16.2756303 L14.0504202,18.4302521 C14.0504202,19.1058824 13.5226891,19.6739496 12.897479,19.6739496 L10.7361345,19.6739496 C10.1109244,19.6739496 9.58319328,19.102521 9.58319328,18.4302521 L9.58319328,16.2789916 L7.39831933,16.2789916 C6.71260504,16.2789916 6.13445378,15.7579832 6.13445378,15.1394958 L6.13445378,13.005042 C6.13445378,12.3865546 6.71260504,11.8655462 7.39495798,11.8655462 L9.57647059,11.8655462 L9.57647059,9.71092437 C9.57647059,9.0487395 10.1142857,8.46722689 10.7294118,8.46722689 L12.8907563,8.46722689 C13.5058824,8.46722689 14.0436975,9.0487395 14.0436975,9.71092437 L14.0436975,11.8621849 L16.2319328,11.8621849 Z" id="Kit_2Regular"></path>
        </g>
    </g>
</svg>

<svg width="24" height="24" viewBox="0 0 24 24" xmlns="http://www.w3.org/2000/svg"><path d="M22.148 20.958V7.176a.271.271 0 00-.272-.272H1.748a.271.271 0 00-.272.272v13.782a.27.27 0 00.272.269h20.124a.271.271 0 00.276-.269zM7.6 3.536v1.916h8.427V3.536a.55.55 0 00-.272-.064H7.872a.517.517 0 00-.272.064zm14.276 1.916c.964 0 1.748.773 1.748 1.728V20.96c0 .952-.784 1.725-1.748 1.725H1.748A1.737 1.737 0 010 20.96V7.176A1.74 1.74 0 011.748 5.45H6.12V3.455c0-.806.766-1.442 1.748-1.442h7.879c.981 0 1.751.636 1.751 1.442v1.997h4.377zm-5.863 9.361v-1.495h-2.705a.737.737 0 01-.74-.726v-2.67h-1.52v2.67c0 .4-.329.729-.735.729l-2.706.003v1.496l2.706-.003c.41 0 .74.326.74.726l.002 2.669 1.52.003-.004-2.669a.738.738 0 01.736-.73l2.706-.003zm.219-2.95c.669 0 1.26.53 1.26 1.139v2.134c0 .605-.591 1.14-1.26 1.14H14.05v2.154c0 .676-.527 1.244-1.153 1.244h-2.16c-.626 0-1.154-.571-1.154-1.244V16.28H7.398c-.685 0-1.264-.521-1.264-1.14v-2.134c0-.618.579-1.14 1.261-1.14h2.181V9.712c0-.662.538-1.244 1.153-1.244h2.162c.615 0 1.153.582 1.153 1.244v2.151h2.188z" fill="#5CB615" fill-rule="nonzero"/></svg>
